X: 1
T: Sk\"ankl\aat till spelman
O: efter Wilhelm Backlund, Enviken, Dalarna
O: upptecknad av Karl Sporr 1923
R: sk\"ankl\aat
Z: 2020 John Chambers <jc:trillian.mit.edu>
M: 4/4
L: 1/16
K: Dm
A2 |\
"Dm"d2de "A7"T^c2A2 "Dm"d2de "A7"c4 | "Dm"{^c}d2ef "A7"g{fg}fed (ef)ed T^c2A2 | [M:5/4]\
"Dm"d3e f2d2 "A7"^c4 "Dm"d6 :| [K:D]
|: A2 |\
"D"d3f a2a2 "A7"b2a2 "D"a3a | "A7"b3a a2e2 Tg2f2 "D"f4 |\
"A7"{f}g2Tg2 "D"f2Tf2 "A7"(ef)ec A4 | [M:5/4] "D"d3e f2d2 "A7"c4 "D"d6 :|
% - - - - - - - - - -
W: Gammal och ung, gammal och ung,
W: upp med p\"anninge-, p\"anningepung
W: \aat en redlig spelman
W: Å tack \aa tack sk\"a g\^oss'n ha
W: f\"or denna sk\"ank \aa g\aava
W: ,en vacker f\"astm\"o skall du f\aa
W: ,om eljest jag f\aar r\aada
